X:1395
T:the Joker
A:Wyresdale, Lancashire
B:E and J Winder, 1835-41
L:1/8
M:6/8
O:England
Z:Richard Robinson 
%%TUNEURL: http://www.leeds.ac.uk/music/Info/RRTuneBk/gettune/00001217.html
%%ID:00001217
K:C
cBc GAB | cde fga | gec {d}cBc | dBG G3 | \
cBc GAB | cag fed | efg GAB | c3 c3 ::
Bdf Bdf | ceg dfa | gec afd | gec BAG | \
EGc FAc | GBd Acf | efg GAB | c3 c3 :|
